X:133
T:Trip to Martinico
M:C |
L:1/8
B:Thompson's Compleat Collection of 200 Favourite Country Dances, vol. 2 (London, 1765)
Z:Transcribed and edited by Flynn Titford-Mock, 2007
Z:abc's:AK/Fiddler's Companion
K:A
A2A2 | A2 GA BABc | B4 cAec |1 A2A2A2 GF | E4 :|2 A2 BA GEFG | A4 ||
|: e2e2 | e2 dc fefg | e4 agae |1 agfe dcBA | E4 :|2 agfe dcBc | A4 ||
|: {B}A2 GF | E2E2 FEFG | E4 ABcd |1 cdef e2e2 | e4 :|2 cdef edcB | A4 |]

